X:1
T:Mela jsem mileho
C:Sammlung Josef Reszny 
A:Prachinerland
Z:abc transcription Simon Wascher
F:http://simonwascher.info/
M:3/4
L:1/8
K:Gm
G2d2e2 | d2c2BA | B2B2c2 | d6 |
G2d2e2 | d2c2BA | B2B2A2 | G6 ||
G2ABd2 | c2cBA2 | B2B2c2 | d6 |
G2d2e2 | d2c2BA | cBB2A2 | G6 |]
